web/sites/genevieve-lethu/themes/cleverdrop/src/assets/svg/Instagram.svg

<?xml version="1.0" encoding="utf-8"?>
<svg width="31px" height="31px" viewBox="0 0 31 31" version="1.1" xmlns:xlink="http://www.w3.org/1999/xlink" xmlns="http://www.w3.org/2000/svg">
  <defs>
    <path d="M0 15C0 6.71573 6.71573 0 15 0C23.2843 0 30 6.71573 30 15C30 23.2843 23.2843 30 15 30C6.71573 30 0 23.2843 0 15Z" id="path_1" />
    <clipPath id="mask_1">
      <use xlink:href="#path_1" />
    </clipPath>
  </defs>
  <g id="Instagram" transform="translate(0.5 0.5)">
    <path d="M0 15C0 6.71573 6.71573 0 15 0C23.2843 0 30 6.71573 30 15C30 23.2843 23.2843 30 15 30C6.71573 30 0 23.2843 0 15Z" id="Cercle_fond" fill="none" fill-rule="evenodd" stroke="#FFFFFF" stroke-width="1" />
    <g clip-path="url(#mask_1)">
      <path d="M15.0007 7C12.8281 7 12.5554 7.0095 11.702 7.04833C10.8504 7.08733 10.269 7.22217 9.76036 7.42C9.23419 7.62434 8.78785 7.89768 8.34318 8.34251C7.89818 8.78719 7.62484 9.23352 7.41984 9.75953C7.2215 10.2684 7.0865 10.8499 7.04817 11.7012C7.01 12.5546 7 12.8274 7 15.0001C7 17.1728 7.00967 17.4446 7.04833 18.298C7.0875 19.1496 7.22234 19.731 7.42 20.2396C7.62451 20.7658 7.89784 21.2121 8.34268 21.6568C8.78719 22.1018 9.23352 22.3758 9.75936 22.5802C10.2684 22.778 10.8499 22.9128 11.7014 22.9518C12.5547 22.9907 12.8272 23.0002 14.9998 23.0002C17.1726 23.0002 17.4444 22.9907 18.2978 22.9518C19.1495 22.9128 19.7315 22.778 20.2405 22.5802C20.7665 22.3758 21.2121 22.1018 21.6567 21.6568C22.1017 21.2121 22.375 20.7658 22.58 20.2398C22.7767 19.731 22.9117 19.1495 22.9517 18.2981C22.99 17.4448 23 17.1728 23 15.0001C23 12.8274 22.99 12.5547 22.9517 11.7014C22.9117 10.8497 22.7767 10.2684 22.58 9.7597C22.375 9.23352 22.1017 8.78719 21.6567 8.34251C21.2116 7.89751 20.7666 7.62417 20.24 7.42C19.73 7.22217 19.1483 7.08733 18.2966 7.04833C17.4433 7.0095 17.1716 7 14.9983 7L15.0007 7ZM14.2831 8.44168C14.4961 8.44135 14.7337 8.44168 15.0007 8.44168C17.1368 8.44168 17.3899 8.44935 18.2334 8.48768C19.0135 8.52335 19.4368 8.65368 19.7188 8.76319C20.0921 8.90819 20.3583 9.08152 20.6381 9.36152C20.9181 9.64153 21.0915 9.9082 21.2368 10.2815C21.3463 10.5632 21.4768 10.9865 21.5123 11.7666C21.5507 12.6099 21.559 12.8632 21.559 14.9983C21.559 17.1333 21.5507 17.3866 21.5123 18.2299C21.4767 19.01 21.3463 19.4333 21.2368 19.715C21.0918 20.0883 20.9181 20.3541 20.6381 20.634C20.3581 20.914 20.0923 21.0873 19.7188 21.2323C19.4371 21.3423 19.0135 21.4723 18.2334 21.508C17.3901 21.5463 17.1368 21.5547 15.0007 21.5547C12.8646 21.5547 12.6114 21.5463 11.768 21.508C10.988 21.472 10.5647 21.3417 10.2825 21.2321C9.9092 21.0871 9.64253 20.9138 9.36252 20.6338C9.08252 20.3538 8.90919 20.0878 8.76385 19.7143C8.65435 19.4326 8.52385 19.0093 8.48835 18.2293C8.45002 17.3859 8.44235 17.1326 8.44235 14.9963C8.44235 12.8599 8.45002 12.6079 8.48835 11.7645C8.52402 10.9845 8.65435 10.5612 8.76385 10.2792C8.90885 9.90586 9.08252 9.63919 9.36252 9.35919C9.64253 9.07919 9.9092 8.90585 10.2825 8.76052C10.5645 8.65052 10.988 8.52052 11.768 8.48468C12.5061 8.45135 12.7921 8.44135 14.2831 8.43968L14.2831 8.44168ZM19.2711 9.77003C18.7411 9.77003 18.3111 10.1995 18.3111 10.7297C18.3111 11.2597 18.7411 11.6897 19.2711 11.6897C19.8011 11.6897 20.2311 11.2597 20.2311 10.7297C20.2311 10.1997 19.8011 9.7697 19.2711 9.7697L19.2711 9.77003ZM15.0007 10.8917C12.7319 10.8917 10.8924 12.7312 10.8924 15.0001C10.8924 17.2689 12.7319 19.1076 15.0007 19.1076C17.2696 19.1076 19.1085 17.2689 19.1085 15.0001C19.1085 12.7312 17.2694 10.8917 15.0006 10.8917L15.0007 10.8917ZM15.0007 12.3334C16.4734 12.3334 17.6674 13.5272 17.6674 15.0001C17.6674 16.4728 16.4734 17.6668 15.0007 17.6668C13.5279 17.6668 12.3341 16.4728 12.3341 15.0001C12.3341 13.5272 13.5279 12.3334 15.0007 12.3334L15.0007 12.3334Z" id="Logo_insta" fill="#FFFFFF" fill-rule="evenodd" stroke="none" />
    </g>
  </g>
</svg>

<svg viewBox="0 0 31 31" xmlns:xlink="http://www.w3.org/1999/xlink" xmlns="http://www.w3.org/2000/svg"><defs><clipPath id="b"><use xlink:href="#a"/></clipPath><path d="M0 15C0 6.7157 6.7157 0 15 0s15 6.7157 15 15-6.7157 15-15 15S0 23.2843 0 15Z" id="a"/></defs><path d="M.5 15.5c0-8.2843 6.7157-15 15-15s15 6.7157 15 15-6.7157 15-15 15-15-6.7157-15-15Z" fill="none" stroke="#FFF"/><g clip-path="url(#b)" transform="translate(.5 .5)"><path d="M15.0007 7c-2.1726 0-2.4453.0095-3.2987.0483-.8516.039-1.433.1739-1.9416.3717-.5262.2043-.9726.4777-1.4172.9225-.445.4447-.7184.891-.9234 1.417-.1983.5089-.3333 1.0904-.3716 1.9417C7.01 12.5546 7 12.8274 7 15.0001s.0097 2.4445.0483 3.2979c.0392.8516.174 1.433.3717 1.9416.2045.5262.4778.9725.9227 1.4172.4445.445.8908.719 1.4167.9234.509.1978 1.0905.3326 1.942.3716.8533.0389 1.1258.0484 3.2984.0484 2.1728 0 2.4446-.0095 3.298-.0484.8517-.039 1.4337-.1738 1.9427-.3716.526-.2044.9716-.4784 1.4162-.9234.445-.4447.7183-.891.9233-1.417.1967-.5088.3317-1.0903.3717-1.9417.0383-.8533.0483-1.1253.0483-3.298s-.01-2.4454-.0483-3.2987c-.04-.8517-.175-1.433-.3717-1.9417-.205-.5262-.4783-.9725-.9233-1.4172-.4451-.445-.8901-.7183-1.4167-.9225-.51-.1978-1.0917-.3327-1.9434-.3717C17.4433 7.0095 17.1716 7 14.9983 7h.0024Zm-.7176 1.4417c.213-.0004.4506 0 .7176 0 2.1361 0 2.3892.0076 3.2327.046.7801.0357 1.2034.166 1.4854.2755.3733.145.6395.3183.9193.5983.28.28.4534.5467.5987.92.1095.2817.24.705.2755 1.4851.0384.8433.0467 1.0966.0467 3.2317 0 2.135-.0083 2.3883-.0467 3.2316-.0356.7801-.166 1.2034-.2755 1.4851-.145.3733-.3187.6391-.5987.919-.28.28-.5458.4533-.9193.5983-.2817.11-.7053.24-1.4854.2757-.8433.0383-1.0966.0467-3.2327.0467s-2.3893-.0084-3.2327-.0467c-.78-.036-1.2033-.1663-1.4855-.2759-.3733-.145-.64-.3183-.92-.5983s-.4533-.546-.5987-.9195c-.1094-.2817-.24-.705-.2754-1.485-.0384-.8434-.046-1.0967-.046-3.233 0-2.1364.0076-2.3884.046-3.2318.0356-.78.166-1.2033.2754-1.4853.145-.3733.3187-.64.5987-.92s.5467-.4534.92-.5987c.282-.11.7055-.24 1.4855-.2758.7381-.0334 1.0241-.0434 2.5151-.045v.002Zm4.988 1.3283c-.53 0-.96.4295-.96.9597 0 .53.43.96.96.96s.96-.43.96-.96-.43-.96-.96-.96V9.77Zm-4.2704 1.1217c-2.2688 0-4.1083 1.8395-4.1083 4.1084 0 2.2688 1.8395 4.1075 4.1083 4.1075 2.2689 0 4.1078-1.8387 4.1078-4.1075 0-2.2689-1.8391-4.1084-4.1079-4.1084h.0001Zm0 1.4417c1.4727 0 2.6667 1.1938 2.6667 2.6667 0 1.4727-1.194 2.6667-2.6667 2.6667-1.4728 0-2.6666-1.194-2.6666-2.6667 0-1.4729 1.1938-2.6667 2.6666-2.6667Z" fill="#FFF" fill-rule="evenodd"/></g></svg>
